Numix-GalliumOS/32/mimetypes/application-x-osm+xml.svg

<?xml version="1.0" encoding="UTF-8" standalone="no"?>
<svg
   xmlns:dc="http://purl.org/dc/elements/1.1/"
   xmlns:cc="http://creativecommons.org/ns#"
   xmlns:rdf="http://www.w3.org/1999/02/22-rdf-syntax-ns#"
   xmlns:svg="http://www.w3.org/2000/svg"
   xmlns="http://www.w3.org/2000/svg"
   xmlns:sodipodi="http://sodipodi.sourceforge.net/DTD/sodipodi-0.dtd"
   xmlns:inkscape="http://www.inkscape.org/namespaces/inkscape"
   width="32"
   height="32"
   viewBox="0 0 32 32"
   id="svg2"
   version="1.1"
   inkscape:version="0.91 r13725"
   sodipodi:docname="application-x-osm+xml.svg">
  <metadata
     id="metadata14">
    <rdf:RDF>
      <cc:Work
         rdf:about="">
        <dc:format>image/svg+xml</dc:format>
        <dc:type
           rdf:resource="http://purl.org/dc/dcmitype/StillImage" />
        <dc:title />
      </cc:Work>
    </rdf:RDF>
  </metadata>
  <defs
     id="defs12" />
  <sodipodi:namedview
     pagecolor="#ffffff"
     bordercolor="#666666"
     borderopacity="1"
     objecttolerance="10"
     gridtolerance="10"
     guidetolerance="10"
     inkscape:pageopacity="0"
     inkscape:pageshadow="2"
     inkscape:window-width="1366"
     inkscape:window-height="713"
     id="namedview10"
     showgrid="false"
     inkscape:zoom="8"
     inkscape:cx="7.3004291"
     inkscape:cy="12.410956"
     inkscape:window-x="0"
     inkscape:window-y="28"
     inkscape:window-maximized="1"
     inkscape:current-layer="svg2">
    <inkscape:grid
       type="xygrid"
       id="grid2991" />
  </sodipodi:namedview>
  <path
     style="fill:#dcdcdc;fill-opacity:1"
     d="M 5.335888,2.9732228e-4 C 4.648414,3.1228127e-4 4,0.67678818 4,1.3940315 L 4,30.606268 C 4,31.282757 4.687474,32 5.335888,32 l 21.327332,0 c 0.648414,0 1.335888,-0.717243 1.335888,-1.393732 L 28,9 19,0 z"
     id="path4-1"
     inkscape:connector-curvature="0"
     sodipodi:nodetypes="ssssssccs" />
  <path
     style="fill:#000000;fill-opacity:0.19599998"
     d="m 21,9 7,7 0,-7 z"
     id="path6-4"
     inkscape:connector-curvature="0"
     sodipodi:nodetypes="cccc" />
  <path
     style="fill:#ffffff;fill-opacity:0.39200003"
     d="M 19.000306,2.9732228e-4 27.9919,9 20.378638,9 C 19.705687,9 19.000306,8.2865104 19.000306,7.6135598 z"
     id="path8-6"
     inkscape:connector-curvature="0"
     sodipodi:nodetypes="ccssc" />
  <path
     style="fill:#888888;fill-opacity:1;fill-rule:evenodd;stroke:none;stroke-width:1px;stroke-linecap:butt;stroke-linejoin:miter;stroke-opacity:1"
     d="m 16,11.000002 c -3.313708,0 -6,2.68629 -6,6 C 10,20.31371 14,27 16,27 c 2,0 6,-6.68629 6,-9.999998 0,-3.31371 -2.686292,-6 -6,-6 z m 0,2.666666 c 1.84095,0 3.333332,1.492384 3.333332,3.333334 0,1.840948 -1.492382,3.333332 -3.333332,3.333332 -1.84095,0 -3.333334,-1.492384 -3.333334,-3.333332 0,-1.84095 1.492384,-3.333334 3.333334,-3.333334 z"
     id="path3338"
     inkscape:connector-curvature="0"
     sodipodi:nodetypes="sszsssssss" />
</svg>

<svg xmlns="http://www.w3.org/2000/svg" viewBox="0 0 32 32">
 <path d="m 5.336 0 c -0.687 0 -1.336 0.676 -1.336 1.394 l 0 29.21 c 0 0.676 0.687 1.394 1.336 1.394 l 21.327 0 c 0.648 0 1.336 -0.717 1.336 -1.394 l 0.001 -21.606 -9 -9 z" style="fill:#dcdcdc;fill-opacity:1"/>
 <path d="m 21 9 7 7 0 -7 z" style="fill:#000;fill-opacity:0.196"/>
 <path d="m 19 0 8.992 9 -7.613 0 c -0.673 0 -1.378 -0.713 -1.378 -1.386 z" style="fill:#fff;fill-opacity:0.392"/>
 <path d="m 16 11 c -3.314 0 -6 2.686 -6 6 c 0 3.314 4 10 6 10 c 2 0 6 -6.686 6 -10 0 -3.314 -2.686 -6 -6 -6 z m 0 2.667 c 1.841 0 3.333 1.492 3.333 3.333 0 1.841 -1.492 3.333 -3.333 3.333 -1.841 0 -3.333 -1.492 -3.333 -3.333 0 -1.841 1.492 -3.333 3.333 -3.333 z" style="fill:#888;fill-opacity:1;stroke:none;fill-rule:evenodd"/>
</svg>
